!!!COM:	Bach, Johann Sebastian
!!!CDT:	1685/02/21/-1750/07/28/
!!!OTL@@DE:	Wo soll ich fliehen hin
!!!SCT:	BWV 148/6
!!!PC#:	25
!!!AGN:	chorale
**kern	**kern	**kern	**kern
*ICvox	*ICvox	*ICvox	*ICvox
*Ibass	*Itenor	*Ialto	*Isoprn
*I"Bass	*I"Tenor	*I"Alto	*I"Soprano
*clefF4	*clefGv2	*clefG2	*clefG2
*k[b-e-a-]	*k[b-e-a-]	*k[b-e-a-]	*k[b-e-a-]
*f:dor	*f:dor	*f:dor	*f:dor
*M4/4	*M4/4	*M4/4	*M4/4
*met(c)	*met(c)	*met(c)	*met(c)
*MM100	*MM100	*MM100	*MM100
8FL	8A-L	4c	4f
8GJ	8B-J	.	.
=1	=1	=1	=1
4A-	4c	4c	4f
4G	4B-	8dL	4g
.	.	8eJ	.
4F	4c	8fL	4a-
.	.	8eJ	.
4D-	4d-	8fL	4b-
.	.	8gJ	.
=2	=2	=2	=2
2C;	2G;	2e;	2cc;
4r	4ry	4ry	4r
8AA-L	4A-	4e-	4cc
8BB-J	.	.	.
=3	=3	=3	=3
8CL	4A-	8e-L	4.cc
8DJ	.	8fJ	.
4E	4G	[4g	.
.	.	.	8b-
4F	4c	8gL]	4a-
.	.	8fJ	.
4BB-	4d-	8eL	4b-
.	.	8fJ	.
=4	=4	=4	=4
2C;	2c;	2e;	2g;
4r	4ry	4ry	4r
4C	4c	4e	4g
=5	=5	=5	=5
4F	8cL	4f	4a-
.	8d-	.	.
4G	8c	4e-X	4b-
.	8B-J	.	.
8A-L	4A-	4e-	4cc
8G	.	.	.
8F	[4A-	4f	4cc
8E-J	.	.	.
=6	=6	=6	=6
4D-	4A-]	4f	2b-
4E-	4G	4e-	.
4AA-;	4A-;	4e-;	4cc;
4AA-	4A-	4e-	4cc
=7	=7	=7	=7
8D-L	4A-	4f	4a-
8CJ	.	.	.
4BB-	4d-	8fL	4b-
.	.	8gJ	.
8FL	4c	4a-	4cc
8E-J	.	.	.
4D-	4f	4a-	8dd-L
.	.	.	8ee-J
=8	=8	=8	=8
2E-	4e-	4a-	4cc
.	8d-L	4g	8b-L
.	8cJ	.	8a-J
4AA-;	4c;	4e-;	4a-;
4A-	4e-	4a-	4cc
=9	=9	=9	=9
4G	4e-	4b-	4ee-
8A-L	4e-	4a-	4cc
8GJ	.	.	.
8FL	4f	4a-	4cc
8E-	.	.	.
8D-	4e-	[4a-	4cc
8CJ	.	.	.
=10	=10	=10	=10
4DnX	8fL	4a-]	2b-
.	8e-J	.	.
4BB-	4d	8gL	.
.	.	8fJ	.
4E-;	4e-;	4g;	4b-;
8GL	8e-L	4g	4b-
8FJ	8d-J	.	.
=11	=11	=11	=11
8EL	4c	8gL	4.cc
8DJ	.	8fJ	.
4C	4c	4e	.
.	.	.	8b-
8FL	4c	[2f	4a-
8E-	.	.	.
8D-	8B-L	.	8b-L
8CJ	8cJ	.	8a-J
=12	=12	=12	=12
4BB-	4d-	4f]	2g
4C	8cL	4e	.
.	8B-J	.	.
4FF;	4A;	4c;	4f;
==	==	==	==
*-	*-	*-	*-
!!!hum2abc: -Q ''
!!!title: @{PC#}. @{OTL@@DE}
!!!YOR1: 371 vierstimmige Choralges&auml;nge von Johann Sebastian Bach, 
!!!YOR2: 4th ed. by Alfred D&ouml;rffel (Leipzig: Breitkopf und H&auml;rtel, 
!!!YOR2: c.1875). 178 pp. Plate "V.A.10".  reprint: J.S. Bach, 371 Four-Part 
!!!YOR4: Chorales (New York: Associated Music Publishers, Inc., c.1940).
!!!SMS: B&H, 4th ed, Alfred D&ouml;rffel, c.1875, plate V.A.10
!!!EED:  Craig Stuart Sapp
!!!EEV:  2009/05/22
